!!!COM: Mozart, Wolfgang Amadeus
!!!OTL: String Quartet No. 11 in E-flat Major
!!!OMD: Menuetto
!!!OMV: 2
!!!SCT1: K<sup>1</sup> 171
!!!SCA: Chronologisch-thematisches Verzeichnis sämtlicher Tonwerke Wolfgang Amade Mozarts (L. von Köchel; 1862, 2/1905, 3/1937, 1947)
!!!SCT2: K<sup>6</sup> 171
!!!YOR: Breitkopf & Härtel Edition
!!!ENC: Frances Bennion
!!!CDT: 1756/1/27/-1791/12/5/
!!!OCY: Österreich
!!!YEC: Copyright (c) 1994, 2000 Center for Computer Assisted Research in the Humanities
!!!YEM: Rights to all derivative editions reserved.
!!!YEM: Refer to licensing agreement for further details.
!!!YEN: United States of America
**kern	**kern	**kern	**kern
*k[b-e-a-]	*k[b-e-a-]	*k[b-e-a-]	*k[b-e-a-]
*E-:	*E-:	*E-:	*E-:
*clefC	*clefF	*clefG	*clefG
*M3/4	*M3/4	*M3/4	*M3/4
2r	2r	2r	2r
4r	4r	4r	4b-
=1	=1	=1	=1
4E-	4B-	4e-	8a-
.	.	.	8g
2r	2r	2r	8b-
.	.	.	8b-
.	.	.	8b-
.	.	.	8b-
=2	=2	=2	=2
4D	4d	4B-	8g
.	.	.	8f
2r	2r	2r	8b-
.	.	.	8b-
.	.	.	8b-
.	.	.	8b-
=3	=3	=3	=3
4C	4F	4A	8f
.	.	.	8e-
2r	2r	2r	8g
.	.	.	8g
.	.	.	8g
.	.	.	8e-
=4	=4	=4	=4
4BB-	4F	4B-	8e-
.	.	.	8d
2r	2r	2r	8f
.	.	.	8f
.	.	.	8f
.	.	.	8f
=5	=5	=5	=5
2.r	2.r	2.r	8e
.	.	.	8f
.	.	.	8a-
.	.	.	8a-
.	.	.	8a-
.	.	.	8a-
=6	=6	=6	=6
4r	4r	2.G	2.g
4E-	4e-	.	.
4D	4d	.	.
=7	=7	=7	=7
8.C	4c	2.A	2.a
32D	.	.	.
32E-	.	.	.
4F	4.c	.	.
4E-	.	.	.
.	16d	.	.
.	16e-	.	.
=8	=8	=8	=8
4D	2f	4B-	4b-
4AA	.	4e-	4ee-
4BB-	4f	4d	4dd
=9	=9	=9	=9
4E-	4e-	4c	4cc
4F	4d	4B-	4b-
4FF	4c	4A	4a
=10	=10	=10	=10
2BB-	2B-	2B-	2b-
4r	4r	4r	4ff
=11	=11	=11	=11
4BB-	2.r	2.r	8aa-
.	.	.	8gg
4BB-	.	.	8ee-
.	.	.	8ee-
4BB-	.	.	8ee-
.	.	.	8ee-
=12	=12	=12	=12
4BB-	2.r	2r	8ee-
.	.	.	8dd
4BB-	.	.	8b-
.	.	.	8b-
4BB-	.	4f	8b-
.	.	.	8b-
=13	=13	=13	=13
4BB-	2.r	8a-	2ee-
.	.	8g	.
4BB-	.	8e-	.
.	.	8e-	.
4BB-	.	8e-	8gg
.	.	8e-	8ff
=14	=14	=14	=14
4BB-	2.r	8e-	2ff
.	.	8d	.
4BB-	.	8B-	.
.	.	8B-	.
4BB-	.	8B-	4ff
.	.	8B-	.
=15	=15	=15	=15
4BB-	[2.b-	2e-	8aa-
.	.	.	8gg
4BB-	.	.	8ee-
.	.	.	8ee-
4BB-	.	8g	8ee-
.	.	8f	8ee-
=16	=16	=16	=16
4BB-	2b-]	4f	8ee-
.	.	.	8dd
4BB-	.	4r	8b-
.	.	.	8b-
4BB-	8a-	4d	8b-
.	8f	.	8b-
=17	=17	=17	=17
4C	2e-	2g	2ee-
4C	.	.	.
4F	8c	8e-	8cc
.	8A	8c	8a
=18	=18	=18	=18
4BB-	4B-	4d	4b-
2r	2r	2r	4r
.	.	.	4B-
=19	=19	=19	=19
2.r	2.r	2.r	8B
.	.	.	8c
.	.	.	8A-
.	.	.	8A-
.	.	.	8A-
.	.	.	8A-
=20	=20	=20	=20
2.r	2.r	2.r	8B
.	.	.	8c
.	.	.	8A-
.	.	.	8A-
.	.	.	8A-
.	.	.	8A-
=21	=21	=21	=21
2.r	2.r	2.r	8G
.	.	.	8B-
.	.	.	8e-
.	.	.	8B-
.	.	.	8g
.	.	.	8e-
=22	=22	=22	=22
4r	4r	2.B-	2.b-
4G	4e-	.	.
4E-	4g	.	.
=23	=23	=23	=23
4A-	4e-	2.c	2.cc
4F	[2a-	.	.
4E-	.	.	.
=24	=24	=24	=24
4D	8a-]	4B-	4b-
.	8f	.	.
4BB-	4d	4a-	4aa-
4C	4e-	4g	4gg
=25	=25	=25	=25
4AA-	8c	4f	4ff
.	8A-	.	.
4BB-	8G	4e-	4ee-
.	8B-	.	.
4BB-	8A-	4d	4dd
.	8F	.	.
=26	=26	=26	=26
2EE-	2E-	2e-	2ee-
4r	4r	4r	4e-
=27	=27	=27	=27
4AA-	2r	4c	8a-
.	.	.	8g
4AA-	.	4c	8f
.	.	.	8e-
4AA-	4E-	4c	4e-
=28	=28	=28	=28
4AA-	8A-	4c	2e-
.	8G	.	.
4AA-	8F	4c	.
.	8E-	.	.
4AA-	4E-	4c	4e-
=29	=29	=29	=29
4GG	2E-	4d-	8b-
.	.	.	8g
4GG	.	4d-	8f
.	.	.	8e-
4GG	4E-	4d-	4e-
=30	=30	=30	=30
4GG	8B-	4d-	2e-
.	8G	.	.
4GG	8F	4d-	.
.	8E-	.	.
4GG	4E-	4d-	4e-
=31	=31	=31	=31
4AA-	4E-	4c	2.g-
4BB-	4B-	4d-	.
4C	4A-	4e-	.
=32	=32	=32	=32
2D-	4A-	4d-	2f
.	[2F	4A-	.
4C	.	4A	4e-
=33	=33	=33	=33
2BB-	4F]	4B-	4d-
.	4B-	4d-	4f
4D-	4d-	4f	4b-
=34	=34	=34	=34
2E-	4c	2e-	4a-
.	4B-	.	4g
4r	4ee-	4r	4r
=35	=35	=35	=35
4B-	8ee-	2.r	2r
.	8dd-	.	.
4E-	8b-	.	.
.	8g	.	.
4c	4a-	.	4e-
=36	=36	=36	=36
4G	4b-	2.r	8e-
.	.	.	8d-
4E-	4dd-	.	8B-
.	.	.	8G
4A-	4cc	.	4A-
=37	=37	=37	=37
4G	8ee-	2.r	4B-
.	8dd-	.	.
4E-	8b-	.	4d-
.	8g	.	.
4A-	4a-	.	4c
=38	=38	=38	=38
4G	4b-	2r	8e-
.	.	.	8d-
4E-	4dd-	.	8B-
.	.	.	8G
4A-	4cc	4e-	[4A-
=39	=39	=39	=39
2.D-	2.r	4f	4A-]
.	.	8dd-	4A
.	.	8cc	.
.	.	8dd-	[4B-
.	.	8b-	.
=40	=40	=40	=40
2.E-	2.r	4a-	4B-]
.	.	4g	4B
.	.	8ee-	[4c
.	.	8cc	.
=41	=41	=41	=41
2F	2.r	4b-	4c]
.	.	4a-	4d-
4D-	.	8ff	8dd-
.	.	8dd-	8b-
=42	=42	=42	=42
2E-	2r	4cc	4a-
.	.	4b-	4g
4r	4E-	4r	4r
=43	=43	=43	=43
4AA-	8A-	4c	2r
.	8G	.	.
4AA-	8F	4c	.
.	8E-	.	.
4AA-	4E-	4c	4e-
=44	=44	=44	=44
4AA-	2E-	4c	8a-
.	.	.	8g
4AA-	.	4c	8f
.	.	.	8e-
4AA-	4E-	4c	4e-
=45	=45	=45	=45
4GG	8B-	4d-	2e-
.	8G	.	.
4GG	8F	4d-	.
.	8E-	.	.
4GG	4E-	4d-	4e-
=46	=46	=46	=46
4GG	2E-	4d-	8b-
.	.	.	8g
4GG	.	4d-	8f
.	.	.	8e-
4GG	4B-	4d-	4e-
=47	=47	=47	=47
4AA-	[2.A-	4c	2.g-
4BB-	.	4d-	.
4C	.	4e-	.
=48	=48	=48	=48
4D-	4A-]	4d-	4f
4GG	2e-	4b-	4dd-
4AA-	.	4a-	4cc
=49	=49	=49	=49
4D-	4d-	4f	4b-
4E-	4c	4e-	4a-
4EE-	4B-	4d-	4g
=50	=50	=50	=50
2AA-	2A-	2c	2a-
4r	4r	4r	4r
==	==	==	==
*-	*-	*-	*-
!!!RWG1: This file contains only pitch and duration data.
!!!RWG2: Transposing instruments are not transposed.
!!!RWG3: Spines may have incompatible meters.
!!!RWG4: Durations of rests and tied notes may be interpreted.
!!!RWG: Key is interpreted using the Humdrum key tool.
!!!AFT: stage1
!!!END: 1997/04/15
!!!KEY: 1792420734
!!!EMD: Converted from MuseData to Humdrum Dec 16, 2000, by Andreas Kornstaedt using muse2kern.
!!!EMD: Manual editing by Craig Sapp, Nov 2001
